X: 859
T: The maid of Feakle
C: anon.
O: Ireland
B: Francis O'Neill: "The Dance Music of Ireland" (1907) no. 775
R: Reel
Z: Transcribed by Frank Nordberg - http://www.musicaviva.com
F: http://www.musicaviva.com/abc/tunes/ireland/oneill-1001/oneill-1001-077
5.abc
m: Tn = (3n/o/n/
M: C
L: 1/8
K: G
(Bc) "^segno" |d2(BG) AGE(G|DG)BG c2(Bc)|d2(BG) AGE(G|DG)BG A2(GB)|d2(BG)
 AGE(G|DG)BG c2(BA)|G(ABd) efg(e|dB)GB A2G2||
Bcd(B cB)c(d|B)cdB TA(EED)|Bcd(B cB)c(e|dB)GB A2G2|Bcd(B cB)cd|BcdB A(EED
)|Bdd(f ed)Bd|cgf(a gf)ge "^segno" |]
W:
W:
W: From Musica Viva - http://www.musicaviva.com
W: the Internet center for free sheet music downloads.


